public/luts/dungeon.3dl
0 64 128 192 256 320 384 448 512 575 639 703 767 831 895 959 1023
0 0 139
0 0 153
0 0 327
0 0 519
0 0 725
0 0 943
0 0 1169
0 0 1401
0 4 1636
0 9 1871
0 15 2103
0 21 2330
0 26 2547
0 31 2753
0 36 2945
0 40 3120
0 44 3274
0 0 142
0 0 155
0 0 330
0 0 522
0 0 728
0 3 945
0 9 1172
0 14 1404
0 20 1639
0 26 1874
0 31 2106
0 37 2332
0 42 2550
0 47 2756
0 52 2948
0 56 3122
0 60 3277
0 197 177
0 197 190
0 201 365
0 206 557
0 211 763
0 216 980
0 222 1207
0 227 1439
0 233 1674
0 239 1909
0 245 2141
0 250 2367
0 255 2585
0 260 2791
2 265 2983
6 269 3157
10 273 3311
0 431 215
0 431 229
0 435 403
0 440 595
0 445 801
0 451 1019
5 456 1245
11 462 1477
18 468 1712
24 473 1947
30 479 2179
36 485 2405
42 490 2623
48 495 2829
53 500 3021
58 504 3195
62 508 3349
32 683 256
33 683 270
37 688 444
43 692 636
48 697 842
54 703 1059
60 708 1286
67 714 1518
73 720 1753
79 725 1987
86 731 2219
92 737 2446
98 742 2663
103 747 2869
109 752 3061
113 756 3235
118 760 3390
91 949 299
91 950 312
96 954 487
101 959 679
107 964 885
113 969 1102
119 975 1328
125 980 1560
132 986 1795
138 992 2030
145 998 2262
151 1003 2488
157 1009 2706
163 1014 2912
168 1018 3104
173 1023 3278
177 1027 3432
152 1226 343
153 1227 357
158 1231 531
163 1236 723
169 1241 929
175 1246 1146
181 1252 1373
187 1257 1604
194 1263 1839
200 1269 2074
207 1275 2306
213 1280 2532
219 1286 2750
225 1291 2956
230 1296 3147
235 1300 3322
239 1304 3476
216 1510 388
216 1511 402
221 1515 576
227 1520 768
232 1525 974
238 1530 1191
245 1536 1417
251 1542 1649
258 1548 1884
264 1553 2119
271 1559 2351
277 1565 2577
283 1570 2794
289 1575 3000
295 1580 3192
299 1584 3366
304 1588 3520
281 1798 434
282 1799 447
286 1803 621
292 1808 813
298 1813 1019
304 1818 1236
310 1824 1462
317 1830 1694
323 1836 1929
330 1841 2164
337 1847 2396
343 1853 2622
349 1858 2839
355 1863 3045
360 1868 3237
365 1873 3411
370 1876 3565
347 2087 478
347 2087 492
352 2091 666
358 2096 858
363 2101 1064
370 2107 1281
376 2112 1507
383 2118 1739
389 2124 1974
396 2130 2208
403 2136 2440
409 2141 2666
415 2147 2884
421 2152 3090
427 2157 3281
432 2161 3455
436 2165 3610
412 2371 522
413 2372 536
418 2376 710
423 2381 902
429 2386 1107
435 2391 1325
442 2397 1551
448 2403 1783
455 2409 2017
462 2415 2252
469 2421 2484
475 2426 2710
481 2432 2927
487 2437 3133
493 2442 3325
498 2446 3499
503 2450 3653
477 2649 565
477 2650 578
482 2654 752
488 2659 944
494 2664 1150
500 2669 1367
506 2675 1593
513 2681 1825
520 2687 2060
527 2693 2294
534 2699 2526
540 2704 2752
547 2710 2969
553 2715 3175
558 2720 3367
563 2724 3541
568 2728 3695
539 2917 605
540 2917 619
545 2921 793
550 2926 984
556 2931 1190
563 2937 1408
569 2943 1634
576 2948 1865
583 2954 2100
590 2960 2334
597 2966 2566
603 2972 2792
610 2977 3009
616 2983 3215
621 2987 3407
626 2992 3581
631 2996 3735
599 3170 643
599 3170 657
604 3175 831
610 3180 1022
616 3185 1228
622 3190 1446
629 3196 1671
636 3202 1903
643 3208 2138
650 3214 2372
657 3220 2604
663 3226 2830
670 3231 3047
676 3236 3253
682 3241 3444
687 3246 3619
691 3249 3773
655 3406 679
655 3406 692
660 3411 866
666 3416 1058
672 3421 1263
679 3426 1481
685 3432 1706
692 3438 1938
699 3444 2173
706 3450 2407
713 3456 2639
720 3462 2865
726 3467 3082
732 3472 3288
738 3477 3479
743 3482 3653
748 3486 3807
706 3621 710
706 3621 724
712 3626 898
717 3630 1089
723 3636 1295
730 3641 1512
737 3647 1738
744 3653 1970
751 3659 2204
758 3665 2439
765 3671 2670
771 3676 2896
778 3682 3113
784 3687 3319
790 3692 3511
795 3697 3685
800 3700 3839
752 3811 738
752 3811 752
757 3816 926
763 3821 1117
769 3826 1323
776 3831 1540
783 3837 1766
789 3843 1998
797 3849 2232
804 3855 2466
811 3861 2698
817 3867 2924
824 3872 3141
830 3877 3347
836 3882 3538
841 3887 3712
846 3891 3866
0 0 140
0 0 153
0 0 328
0 0 520
0 0 726
0 0 944
0 0 1170
0 0 1402
0 5 1637
0 10 1872
0 16 2104
0 22 2330
0 27 2548
0 32 2754
0 37 2946
0 41 3120
0 45 3275
0 0 143
0 0 156
0 0 331
0 0 522
0 0 729
0 4 946
0 9 1173
0 15 1405
0 21 1640
0 27 1875
0 32 2107
0 38 2333
0 43 2551
0 48 2757
0 53 2949
0 57 3123
0 61 3277
0 198 178
0 198 191
0 202 366
0 207 557
0 212 764
0 217 981
0 223 1208
0 228 1440
0 234 1675
0 240 1909
0 246 2142
0 251 2368
5 256 2585
11 261 2792
16 266 2983
20 270 3158
25 274 3312
0 432 216
0 432 229
0 436 404
2 441 596
7 446 802
13 451 1019
19 457 1246
25 463 1478
32 468 1713
38 474 1948
44 480 2180
50 485 2406
56 491 2623
62 496 2830
67 501 3021
72 505 3196
76 509 3350
46 684 257
47 684 270
51 688 445
57 693 637
62 698 843
68 704 1060
74 709 1286
81 715 1519
87 721 1753
93 726 1988
100 732 2220
106 738 2446
112 743 2664
118 748 2870
123 753 3062
128 757 3236
132 761 3391
105 950 300
105 950 313
110 955 488
115 959 679
121 965 885
127 970 1103
133 976 1329
140 981 1561
146 987 1796
152 993 2031
159 999 2263
165 1004 2489
171 1010 2707
177 1015 2913
182 1019 3104
187 1024 3279
191 1027 3433
167 1227 344
167 1227 357
172 1232 532
177 1237 724
183 1242 930
189 1247 1147
195 1253 1373
201 1258 1605
208 1264 1840
214 1270 2075
221 1276 2307
227 1281 2533
233 1287 2750
239 1292 2957
244 1297 3148
249 1301 3323
253 1305 3477
230 1511 389
231 1512 402
235 1516 577
241 1521 769
247 1526 975
253 1531 1192
259 1537 1418
265 1543 1650
272 1549 1885
279 1554 2120
285 1560 2351
291 1566 2578
298 1571 2795
303 1576 3001
309 1581 3193
314 1585 3367
318 1589 3521
295 1799 434
296 1800 448
301 1804 622
306 1809 814
312 1814 1020
318 1819 1237
324 1825 1463
331 1831 1695
337 1837 1930
344 1842 2165
351 1848 2396
357 1854 2622
363 1859 2840
369 1864 3046
375 1869 3237
379 1874 3412
384 1877 3566
361 2088 479
361 2088 493
366 2092 667
372 2097 858
378 2102 1064
384 2108 1282
390 2113 1508
397 2119 1740
404 2125 1974
410 2131 2209
417 2137 2441
423 2142 2667
430 2148 2884
435 2153 3090
441 2158 3282
446 2162 3456
450 2166 3610
426 2372 523
427 2373 536
432 2377 711
437 2382 902
443 2387 1108
449 2392 1326
456 2398 1552
463 2404 1783
469 2410 2018
476 2416 2253
483 2421 2484
489 2427 2710
496 2433 2928
502 2438 3134
507 2443 3325
512 2447 3500
517 2451 3654
491 2650 566
491 2651 579
496 2655 753
502 2660 945
508 2665 1151
514 2670 1368
521 2676 1594
527 2682 1826
534 2688 2060
541 2694 2295
548 2700 2527
554 2705 2753
561 2711 2970
567 2716 3176
572 2721 3367
577 2725 3542
582 2729 3696
553 2918 606
554 2918 619
559 2922 794
564 2927 985
570 2932 1191
577 2938 1408
583 2944 1634
590 2949 1866
597 2955 2101
604 2961 2335
611 2967 2567
617 2973 2793
624 2978 3010
630 2984 3216
635 2988 3407
641 2993 3582
645 2997 3736
613 3171 644
613 3171 657
619 3176 832
624 3181 1023
630 3186 1229
637 3191 1446
643 3197 1672
650 3203 1904
657 3209 2138
664 3215 2373
671 3221 2605
678 3227 2831
684 3232 3048
690 3237 3254
696 3242 3445
701 3247 3619
706 3250 3773
669 3407 679
669 3407 693
675 3412 867
680 3417 1058
686 3422 1264
693 3427 1481
699 3433 1707
706 3439 1939
713 3445 2173
720 3451 2408
727 3457 2640
734 3463 2865
740 3468 3083
747 3473 3288
752 3478 3480
758 3483 3654
762 3487 3808
720 3622 711
721 3622 724
726 3627 899
732 3631 1090
738 3637 1296
744 3642 1513
751 3648 1739
758 3654 1970
765 3660 2205
772 3666 2439
779 3672 2671
786 3677 2897
792 3683 3114
798 3688 3320
804 3693 3511
809 3698 3685
814 3701 3839
766 3812 739
766 3812 752
771 3817 926
777 3822 1118
783 3827 1324
790 3832 1541
797 3838 1767
804 3844 1998
811 3850 2233
818 3856 2467
825 3862 2699
832 3868 2925
838 3873 3142
844 3878 3348
850 3883 3539
856 3888 3713
860 3892 3867
76 0 150
76 0 164
81 0 338
86 0 530
91 0 736
97 0 954
103 6 1180
109 11 1412
116 17 1647
122 23 1882
128 29 2114
134 34 2341
140 39 2558
145 44 2765
150 49 2956
155 53 3131
159 57 3285
79 0 153
80 0 166
84 2 341
89 6 533
95 11 739
101 17 957
107 22 1183
113 28 1415
119 33 1650
125 39 1885
131 45 2117
138 50 2343
143 56 2561
149 61 2767
154 65 2959
159 70 3133
163 73 3288
125 210 188
126 210 201
130 215 376
135 219 568
141 224 774
147 230 992
153 235 1218
159 241 1450
165 247 1685
172 252 1920
178 258 2152
184 264 2378
190 269 2596
195 274 2802
201 279 2994
205 283 3168
209 287 3322
176 444 226
176 445 240
181 449 414
186 454 606
192 459 812
198 464 1030
204 470 1256
210 475 1488
216 481 1723
223 487 1958
229 493 2190
235 498 2416
241 503 2634
247 509 2840
252 513 3032
257 518 3206
261 521 3360
231 696 267
232 697 281
236 701 455
242 706 647
247 711 853
253 716 1070
259 722 1297
266 727 1529
272 733 1764
278 739 1998
285 745 2230
291 750 2457
297 756 2674
303 761 2880
308 766 3072
313 770 3246
317 774 3401
290 963 310
290 963 323
295 967 498
300 972 690
306 977 896
312 983 1113
318 988 1339
325 994 1571
331 1000 1806
338 1006 2041
344 1011 2273
350 1017 2499
356 1022 2717
362 1027 2923
367 1032 3114
372 1036 3289
376 1040 3443
352 1240 354
352 1240 368
357 1244 542
362 1249 734
368 1254 940
374 1260 1157
380 1265 1383
387 1271 1615
393 1277 1850
400 1283 2085
406 1288 2317
412 1294 2543
419 1299 2760
424 1305 2967
430 1309 3158
434 1314 3332
439 1317 3487
415 1524 399
416 1524 413
421 1529 587
426 1534 779
432 1539 985
438 1544 1202
444 1550 1428
451 1555 1660
457 1561 1895
464 1567 2130
470 1573 2361
477 1579 2588
483 1584 2805
489 1589 3011
494 1594 3203
499 1598 3377
503 1602 3531
481 1812 444
481 1812 458
486 1817 632
491 1822 824
497 1827 1030
503 1832 1247
510 1838 1473
516 1844 1705
523 1849 1940
530 1855 2174
536 1861 2406
543 1867 2632
549 1872 2850
555 1877 3056
560 1882 3247
565 1886 3422
569 1890 3576
546 2100 489
547 2101 502
552 2105 677
557 2110 868
563 2115 1074
569 2120 1292
576 2126 1518
582 2132 1749
589 2138 1984
596 2144 2219
603 2149 2451
609 2155 2677
615 2160 2894
621 2166 3100
627 2170 3292
632 2175 3466
636 2179 3620
612 2385 533
612 2385 546
617 2390 720
623 2395 912
629 2400 1118
635 2405 1335
642 2411 1561
648 2417 1793
655 2423 2028
662 2429 2262
669 2434 2494
675 2440 2720
681 2446 2938
687 2451 3143
693 2456 3335
698 2460 3509
703 2464 3663
677 2663 575
677 2663 589
682 2668 763
688 2673 954
694 2678 1160
700 2683 1378
707 2689 1604
713 2695 1835
720 2701 2070
727 2707 2305
734 2712 2536
740 2718 2762
747 2724 2980
753 2729 3185
758 2734 3377
763 2738 3551
768 2742 3705
739 2931 616
740 2931 629
745 2935 803
750 2940 995
756 2945 1201
763 2951 1418
769 2957 1644
776 2962 1876
783 2968 2110
790 2974 2345
797 2980 2576
803 2986 2802
810 2991 3020
816 2997 3225
822 3001 3417
827 3006 3591
831 3010 3745
799 3184 654
799 3184 667
805 3189 841
810 3194 1033
816 3199 1238
823 3204 1456
829 3210 1682
836 3216 1913
843 3222 2148
850 3228 2382
857 3234 2614
864 3240 2840
870 3245 3057
876 3250 3263
882 3255 3455
887 3260 3629
892 3263 3783
855 3420 689
856 3420 702
861 3425 876
866 3430 1068
873 3435 1273
879 3440 1491
886 3446 1717
893 3452 1948
900 3458 2183
907 3464 2417
914 3470 2649
920 3476 2875
927 3481 3092
933 3486 3298
939 3491 3489
944 3496 3663
949 3500 3817
907 3635 721
907 3635 734
912 3640 908
918 3644 1099
924 3650 1305
930 3655 1522
937 3661 1748
944 3667 1980
951 3673 2214
958 3679 2449
965 3685 2680
972 3691 2906
979 3696 3123
985 3701 3329
991 3706 3521
996 3711 3695
1000 3715 3849
952 3825 748
953 3825 762
958 3830 936
964 3835 1127
970 3840 1333
976 3845 1550
983 3851 1776
990 3857 2008
997 3863 2242
1004 3869 2476
1011 3875 2708
1018 3881 2934
1025 3886 3151
1031 3892 3357
1037 3896 3548
1042 3901 3722
1047 3905 3876
279 0 162
279 0 175
284 0 350
289 4 542
294 9 748
300 14 965
306 20 1192
312 25 1424
318 31 1659
325 37 1894
331 42 2126
337 48 2352
343 53 2570
348 58 2776
354 63 2968
358 67 3142
362 71 3296
282 11 165
282 11 178
287 15 352
292 20 544
298 25 750
303 30 968
310 36 1194
316 41 1426
322 47 1661
328 53 1896
334 59 2128
341 64 2355
346 69 2572
352 75 2779
357 79 2970
362 83 3145
