public/luts/dungeon.3dl
0 256 512 767 1023
0 0 139
0 0 725
0 4 1636
0 26 2547
0 44 3274
32 683 256
48 697 842
73 720 1753
98 742 2663
118 760 3390
281 1798 434
298 1813 1019
323 1836 1929
349 1858 2839
370 1876 3565
539 2917 605
556 2931 1190
583 2954 2100
610 2977 3009
631 2996 3735
752 3811 738
769 3826 1323
797 3849 2232
824 3872 3141
846 3891 3866
497 9 174
512 24 760
537 46 1671
561 68 2582
581 86 3309
653 725 291
669 740 876
694 762 1787
719 785 2697
739 803 3424
904 1841 467
920 1856 1052
946 1879 1962
972 1901 2872
993 1920 3598
1163 2960 638
1181 2975 1222
1207 2998 2132
1234 3021 3041
1256 3039 3767
1377 3855 770
1395 3870 1354
1423 3893 2263
1450 3916 3172
1472 3935 3897
1461 75 228
1477 89 814
1502 112 1725
1526 134 2636
1546 152 3362
1619 791 344
1635 806 929
1661 828 1839
1686 851 2750
1706 869 3476
1873 1908 518
1889 1923 1103
1915 1946 2013
1942 1969 2923
1963 1987 3649
2135 3028 687
2152 3043 1272
2180 3066 2181
2207 3089 3090
2228 3107 3816
2351 3923 818
2369 3938 1402
2397 3962 2311
2425 3985 3220
2447 4004 3945
2426 141 282
2442 155 867
2467 177 1778
2492 200 2689
2512 218 3415
2586 858 396
2603 872 981
2628 895 1892
2654 918 2802
2674 936 3528
2842 1975 569
2859 1990 1154
2886 2013 2064
2912 2036 2973
2933 2054 3699
3108 3096 736
3125 3111 1321
3152 3134 2230
3180 3157 3139
3202 3176 3864
3326 3992 866
3344 4007 1450
3372 4030 2359
3400 4054 3267
3423 4073 3992
3197 193 324
3213 208 910
3238 230 1820
3263 253 2731
3284 271 3457
3358 911 438
3375 925 1023
3400 948 1933
3426 971 2843
3447 989 3569
3616 2029 609
3634 2044 1194
3660 2067 2104
3687 2090 3013
3708 2108 3739
3884 3150 775
3902 3165 1360
3929 3189 2269
3957 3212 3178
3979 3231 3903
4095 4047 903
4095 4062 1488
4095 4085 2396
4095 4095 3305
4095 4095 4029
