public/luts/dungeon.3dl
0 128 256 384 512 639 767 895 1023
0 0 139
0 0 327
0 0 725
0 0 1169
0 4 1636
0 15 2103
0 26 2547
0 36 2945
0 44 3274
0 197 177
0 201 365
0 211 763
0 222 1207
0 233 1674
0 245 2141
0 255 2585
2 265 2983
10 273 3311
32 683 256
37 688 444
48 697 842
60 708 1286
73 720 1753
86 731 2219
98 742 2663
109 752 3061
118 760 3390
152 1226 343
158 1231 531
169 1241 929
181 1252 1373
194 1263 1839
207 1275 2306
219 1286 2750
230 1296 3147
239 1304 3476
281 1798 434
286 1803 621
298 1813 1019
310 1824 1462
323 1836 1929
337 1847 2396
349 1858 2839
360 1868 3237
370 1876 3565
412 2371 522
418 2376 710
429 2386 1107
442 2397 1551
455 2409 2017
469 2421 2484
481 2432 2927
493 2442 3325
503 2450 3653
539 2917 605
545 2921 793
556 2931 1190
569 2943 1634
583 2954 2100
597 2966 2566
610 2977 3009
621 2987 3407
631 2996 3735
655 3406 679
660 3411 866
672 3421 1263
685 3432 1706
699 3444 2173
713 3456 2639
726 3467 3082
738 3477 3479
748 3486 3807
752 3811 738
757 3816 926
769 3826 1323
783 3837 1766
797 3849 2232
811 3861 2698
824 3872 3141
836 3882 3538
846 3891 3866
76 0 150
81 0 338
91 0 736
103 6 1180
116 17 1647
128 29 2114
140 39 2558
150 49 2956
159 57 3285
125 210 188
130 215 376
141 224 774
153 235 1218
165 247 1685
178 258 2152
190 269 2596
201 279 2994
209 287 3322
231 696 267
236 701 455
247 711 853
259 722 1297
272 733 1764
285 745 2230
297 756 2674
308 766 3072
317 774 3401
352 1240 354
357 1244 542
368 1254 940
380 1265 1383
393 1277 1850
406 1288 2317
419 1299 2760
430 1309 3158
439 1317 3487
481 1812 444
486 1817 632
497 1827 1030
510 1838 1473
523 1849 1940
536 1861 2406
549 1872 2850
560 1882 3247
569 1890 3576
612 2385 533
617 2390 720
629 2400 1118
642 2411 1561
655 2423 2028
669 2434 2494
681 2446 2938
693 2456 3335
703 2464 3663
739 2931 616
745 2935 803
756 2945 1201
769 2957 1644
783 2968 2110
797 2980 2576
810 2991 3020
822 3001 3417
831 3010 3745
855 3420 689
861 3425 876
873 3435 1273
886 3446 1717
900 3458 2183
914 3470 2649
927 3481 3092
939 3491 3489
949 3500 3817
952 3825 748
958 3830 936
970 3840 1333
983 3851 1776
997 3863 2242
1011 3875 2708
1025 3886 3151
1037 3896 3548
1047 3905 3876
497 9 174
502 14 362
512 24 760
524 34 1204
537 46 1671
549 57 2138
561 68 2582
572 78 2980
581 86 3309
546 239 212
551 243 400
562 253 797
574 264 1241
587 275 1708
599 287 2175
611 298 2619
622 307 3017
631 316 3346
653 725 291
658 730 478
669 740 876
681 751 1320
694 762 1787
707 774 2254
719 785 2697
730 794 3095
739 803 3424
774 1269 377
779 1273 565
790 1283 963
803 1294 1406
816 1306 1873
829 1318 2340
841 1329 2783
852 1338 3181
862 1347 3509
904 1841 467
909 1846 655
920 1856 1052
933 1867 1496
946 1879 1962
959 1890 2429
972 1901 2872
983 1911 3270
993 1920 3598
1036 2415 555
1041 2419 743
1053 2429 1140
1065 2440 1583
1079 2452 2050
1092 2464 2516
1105 2475 2960
1117 2485 3357
1127 2493 3685
1163 2960 638
1169 2965 825
1181 2975 1222
1194 2986 1666
1207 2998 2132
1221 3010 2598
1234 3021 3041
1246 3031 3439
1256 3039 3767
1280 3450 710
1285 3455 898
1297 3465 1295
1311 3476 1738
1324 3488 2204
1338 3500 2670
1352 3511 3113
1364 3521 3511
1374 3529 3839
1377 3855 770
1383 3860 957
1395 3870 1354
1408 3881 1797
1423 3893 2263
1437 3905 2729
1450 3916 3172
1462 3926 3569
1472 3935 3897
967 41 201
972 46 388
982 56 786
994 66 1230
1007 78 1697
1019 89 2164
1031 100 2608
1042 110 3006
1051 118 3335
1017 271 238
1022 275 426
1032 285 824
1044 296 1268
1057 307 1735
1070 319 2201
1082 330 2645
1093 340 3043
1102 348 3372
1124 757 317
1129 762 504
1140 772 902
1152 783 1346
1165 794 1813
1178 806 2279
1190 817 2723
1201 827 3121
1210 835 3449
1245 1301 403
1251 1306 590
1262 1316 988
1274 1327 1432
1287 1338 1898
1300 1350 2365
1313 1361 2809
1324 1371 3206
1333 1379 3535
1376 1874 492
1381 1879 680
1392 1889 1077
1405 1900 1521
1418 1911 1987
1432 1923 2454
1445 1934 2897
1456 1944 3294
1465 1952 3623
1508 2447 580
1514 2452 767
1525 2462 1165
1538 2473 1608
1552 2485 2074
1566 2497 2541
1579 2508 2984
1590 2518 3381
1600 2526 3710
1637 2993 662
1642 2998 849
1654 3008 1247
1667 3019 1690
1681 3031 2156
1695 3043 2622
1708 3054 3065
1720 3064 3463
1730 3073 3791
1754 3483 734
1759 3488 922
1771 3498 1319
1785 3509 1762
1799 3521 2228
1813 3533 2694
1826 3544 3137
1838 3554 3534
1848 3563 3862
1852 3888 793
1858 3893 981
1870 3903 1378
1883 3914 1821
1897 3926 2287
1911 3938 2753
1925 3950 3196
1937 3960 3593
1947 3968 3921
1461 75 228
1466 79 416
1477 89 814
1489 100 1258
1502 112 1725
1514 123 2192
1526 134 2636
1537 144 3033
1546 152 3362
1511 304 266
1517 309 453
1527 319 851
1539 330 1295
1552 341 1762
1565 353 2229
1577 364 2673
1588 373 3070
1597 382 3399
1619 791 344
1624 796 531
1635 806 929
1648 817 1373
1661 828 1839
1674 840 2306
1686 851 2750
1697 861 3148
1706 869 3476
1742 1335 429
1747 1340 617
1758 1350 1015
1770 1361 1458
1784 1373 1925
1797 1384 2391
1809 1395 2835
1821 1405 3233
1830 1413 3561
1873 1908 518
1878 1913 706
1889 1923 1103
1902 1934 1547
1915 1946 2013
1929 1957 2480
1942 1969 2923
1953 1979 3320
1963 1987 3649
2006 2482 606
2011 2487 793
2023 2497 1190
2036 2508 1634
2050 2520 2100
2063 2531 2566
2076 2543 3010
2088 2553 3407
2098 2561 3735
2135 3028 687
2141 3033 875
2152 3043 1272
2166 3054 1715
2180 3066 2181
2193 3078 2647
2207 3089 3090
2219 3099 3488
2228 3107 3816
2253 3518 759
2258 3523 947
2270 3533 1344
2284 3544 1787
2298 3556 2253
2312 3568 2719
2325 3579 3162
2337 3589 3559
2347 3598 3887
2351 3923 818
2357 3928 1005
2369 3938 1402
2383 3950 1845
2397 3962 2311
2411 3973 2777
2425 3985 3220
2437 3995 3617
2447 4004 3945
1956 109 256
1961 113 444
1972 123 841
1984 134 1285
1997 145 1752
2009 157 2219
2021 168 2663
2032 178 3061
2041 186 3389
2006 338 293
2012 343 481
2022 353 878
2035 364 1322
2047 375 1789
2060 387 2256
2072 398 2700
2083 407 3097
2092 416 3426
2115 825 371
2120 830 558
2131 840 956
2143 851 1400
2156 862 1866
2169 874 2333
2182 885 2777
2193 895 3174
2202 903 3503
2238 1370 456
2243 1374 644
2254 1384 1041
2267 1395 1485
2280 1407 1951
2293 1418 2418
2306 1430 2861
2317 1440 3259
2327 1448 3587
2370 1943 544
2375 1947 732
2386 1957 1129
2399 1968 1573
2413 1980 2039
2426 1992 2506
2439 2003 2949
2451 2013 3346
2460 2021 3675
2504 2517 631
2509 2521 819
2521 2531 1216
2534 2543 1659
2548 2554 2126
2561 2566 2592
2574 2577 3035
2586 2587 3432
2596 2596 3761
2634 3063 712
2639 3068 900
2651 3078 1297
2664 3089 1740
2678 3101 2206
2692 3113 2672
2705 3124 3115
2717 3134 3513
2727 3142 3841
2752 3553 784
2757 3558 971
2769 3568 1369
2783 3579 1812
2797 3591 2278
2811 3603 2744
2825 3614 3186
2837 3625 3583
2847 3633 3912
2851 3958 842
2856 3963 1030
2869 3973 1427
2882 3985 1870
2897 3997 2336
2911 4009 2801
2925 4020 3244
2937 4030 3641
2947 4039 3969
2426 141 282
2432 145 470
2442 155 867
2454 166 1311
2467 177 1778
2480 189 2245
2492 200 2689
2503 210 3086
2512 218 3415
2477 370 319
2482 375 506
2493 385 904
2505 396 1348
2518 407 1815
2531 419 2282
2544 430 2725
2555 440 3123
2564 448 3452
2586 858 396
2591 862 584
2603 872 981
2615 883 1425
2628 895 1892
2641 906 2358
2654 918 2802
2665 927 3200
2674 936 3528
2710 1402 481
2715 1407 669
2726 1417 1066
2739 1428 1510
2752 1439 1976
2766 1451 2443
2778 1462 2886
2790 1472 3284
2799 1480 3612
2842 1975 569
2848 1980 757
2859 1990 1154
2872 2001 1597
2886 2013 2064
2899 2025 2530
2912 2036 2973
2924 2046 3371
2933 2054 3699
2977 2550 656
2983 2554 843
2994 2564 1240
3007 2576 1683
3021 2587 2150
3035 2599 2616
3048 2610 3059
3060 2621 3456
3070 2629 3785
3108 3096 736
3113 3101 924
3125 3111 1321
3138 3122 1764
3152 3134 2230
3166 3146 2696
3180 3157 3139
3192 3167 3536
3202 3176 3864
3226 3586 808
3232 3591 995
3244 3601 1392
3258 3613 1835
3272 3625 2301
3286 3637 2767
3300 3648 3210
3312 3658 3607
3322 3667 3935
3326 3992 866
3332 3997 1053
3344 4007 1450
3357 4018 1893
3372 4030 2359
3386 4042 2825
3400 4054 3267
3412 4064 3664
3423 4073 3992
2848 169 305
2853 174 493
2864 184 891
2876 195 1334
2889 206 1801
2902 218 2268
2914 229 2712
2925 239 3110
2935 247 3438
2899 399 342
2904 404 530
2915 414 927
2928 425 1371
2941 436 1838
2954 448 2305
2966 459 2748
2977 469 3146
2986 477 3474
3009 887 419
3014 891 607
3025 901 1004
3038 912 1448
3051 924 1914
3064 936 2381
3077 947 2825
3088 957 3222
3097 965 3551
3133 1431 504
3138 1436 691
3150 1446 1089
3162 1457 1532
3176 1469 1999
3189 1480 2465
3202 1492 2908
3213 1502 3306
3223 1510 3634
3266 2005 591
3272 2010 779
3283 2020 1176
3296 2031 1619
3310 2043 2086
3323 2054 2552
3336 2066 2995
3348 2076 3393
3358 2084 3721
3402 2579 677
3407 2584 865
3419 2594 1262
3432 2605 1705
3446 2617 2171
3460 2629 2637
3473 2640 3081
3485 2650 3478
3495 2659 3806
3533 3126 758
3538 3131 945
3550 3141 1342
3564 3152 1785
3578 3164 2251
3592 3176 2717
3605 3187 3160
3617 3197 3557
3627 3206 3885
3652 3616 829
3658 3621 1016
3670 3631 1413
3683 3643 1856
3698 3655 2322
3712 3667 2788
3726 3678 3231
3738 3688 3628
3748 3697 3956
3752 4022 886
3758 4027 1074
3770 4037 1471
3784 4049 1913
3798 4061 2379
3813 4073 2845
3826 4084 3288
3839 4094 3685
3849 4095 4013
3197 193 324
3202 198 512
3213 208 910
3225 219 1354
3238 230 1820
3251 242 2287
3263 253 2731
3274 263 3128
3284 271 3457
3248 423 361
3253 428 549
3264 438 946
3277 449 1390
3290 460 1857
3303 472 2323
3315 483 2767
3326 493 3165
3336 501 3493
3358 911 438
3363 916 625
3375 925 1023
3387 936 1466
3400 948 1933
3414 960 2400
3426 971 2843
3437 981 3241
3447 989 3569
3483 1456 522
3488 1460 710
3500 1470 1107
3512 1481 1550
3526 1493 2017
3539 1505 2483
3552 1516 2927
3564 1526 3324
3573 1534 3653
3616 2029 609
3622 2034 797
3634 2044 1194
3646 2055 1637
3660 2067 2104
3674 2079 2570
3687 2090 3013
3699 2100 3410
3708 2108 3739
3752 2604 695
3758 2608 882
3770 2619 1280
3783 2630 1723
3797 2642 2189
3811 2653 2655
3824 2665 3098
3836 2675 3495
3846 2683 3824
3884 3150 775
3890 3155 963
3902 3165 1360
3915 3177 1803
3929 3189 2269
3943 3201 2735
3957 3212 3178
3969 3222 3575
3979 3231 3903
4004 3641 846
4009 3646 1033
4022 3656 1430
4035 3667 1873
4050 3679 2339
4064 3691 2805
4078 3703 3248
4090 3713 3645
4095 3722 3973
4095 4047 903
4095 4052 1091
4095 4062 1488
4095 4073 1930
4095 4085 2396
4095 4095 2862
4095 4095 3305
4095 4095 3702
4095 4095 4029
