public/luts/overworld.3dl
0 256 512 767 1023
0 16 90
0 9 1131
0 0 2360
0 0 3588
0 0 4095
0 993 0
0 986 1024
0 977 2252
0 968 3481
0 960 4095
0 2146 0
0 2138 897
0 2129 2125
0 2120 3354
0 2112 4095
0 3298 0
0 3290 770
0 3281 1999
0 3272 3227
0 3265 4095
0 4095 0
0 4095 663
0 4095 1891
0 4095 3119
0 4095 4095
956 0 58
951 0 1099
946 0 2328
940 0 3556
935 0 4095
909 971 0
904 963 992
899 954 2220
893 945 3449
888 938 4095
854 2123 0
849 2116 865
843 2107 2093
838 2098 3322
833 2090 4095
798 3276 0
793 3268 738
788 3259 1967
782 3250 3195
777 3243 4095
751 4095 0
746 4095 631
741 4095 1859
735 4095 3087
730 4095 4095
2181 0 20
2176 0 1062
2170 0 2290
2165 0 3518
2160 0 4095
2134 944 0
2129 937 954
2123 928 2183
2118 919 3411
2113 911 4095
2078 2097 0
2074 2089 827
2068 2080 2056
2062 2071 3284
2058 2064 4095
2023 3249 0
2018 3242 700
2012 3233 1929
2007 3224 3157
2002 3216 4095
1976 4095 0
1971 4095 593
1965 4095 1821
1960 4095 3050
1955 4095 4091
3406 0 0
3401 0 1024
3395 0 2252
3390 0 3481
3385 0 4095
3359 918 0
3354 910 916
3348 901 2145
3343 892 3373
3338 885 4095
3303 2070 0
3298 2063 790
3293 2054 2018
3287 2045 3246
3282 2037 4095
3248 3223 0
3243 3215 663
3237 3206 1891
3232 3197 3120
3227 3190 4095
3201 4095 0
3196 4095 555
3190 4095 1784
3185 4095 3012
3180 4095 4053
4095 0 0
4095 0 992
4095 0 2220
4095 0 3449
4095 0 4095
4095 896 0
4095 888 884
4095 879 2113
4095 870 3341
4095 863 4095
4095 2048 0
4095 2040 758
4095 2032 1986
4095 2023 3214
4095 2015 4095
4095 3200 0
4095 3193 631
4095 3184 1859
4095 3175 3088
4095 3167 4095
4095 4095 0
4095 4095 523
4095 4095 1752
4095 4095 2980
4095 4095 4021
