public/luts/overworld.3dl
0 128 256 384 512 639 767 895 1023
0 16 90
0 13 576
0 9 1131
0 4 1734
0 0 2360
0 0 2986
0 0 3588
0 0 4095
0 0 4095
0 472 40
0 468 525
0 464 1081
0 460 1684
0 455 2310
0 451 2935
0 446 3538
0 442 4094
0 439 4095
0 993 0
0 990 468
0 986 1024
0 981 1626
0 977 2252
0 972 2878
0 968 3481
0 964 4036
0 960 4095
0 1558 0
0 1555 406
0 1551 962
0 1546 1564
0 1542 2190
0 1537 2816
0 1533 3418
0 1529 3974
0 1525 4095
0 2146 0
0 2142 341
0 2138 897
0 2134 1499
0 2129 2125
0 2124 2751
0 2120 3354
0 2116 3909
0 2112 4095
0 2733 0
0 2729 277
0 2725 832
0 2721 1435
0 2716 2061
0 2712 2687
0 2707 3289
0 2703 3845
0 2700 4095
0 3298 0
0 3294 214
0 3290 770
0 3286 1373
0 3281 1999
0 3277 2624
0 3272 3227
0 3268 3783
0 3265 4095
0 3819 0
0 3816 157
0 3812 713
0 3807 1315
0 3803 1941
0 3798 2567
0 3794 3170
0 3790 3725
0 3786 4095
0 4095 0
0 4095 107
0 4095 663
0 4095 1265
0 4095 1891
0 4095 2517
0 4095 3119
0 4095 3675
0 4095 4095
402 6 75
400 2 561
397 0 1116
395 0 1719
392 0 2345
389 0 2971
386 0 3573
384 0 4095
381 0 4095
380 461 25
378 458 511
375 454 1066
373 449 1669
370 445 2295
367 440 2921
364 436 3523
362 432 4079
359 428 4095
355 983 0
353 979 453
350 975 1009
348 971 1611
345 966 2237
342 962 2863
339 957 3466
337 953 4021
334 950 4095
328 1548 0
326 1544 391
323 1540 947
320 1536 1549
318 1531 2175
315 1527 2801
312 1522 3403
309 1518 3959
307 1515 4095
300 2135 0
297 2132 326
295 2128 882
292 2123 1485
289 2119 2110
286 2114 2736
284 2110 3339
281 2106 3895
279 2102 4095
271 2722 0
269 2719 262
267 2715 817
264 2710 1420
261 2706 2046
258 2701 2672
255 2697 3274
253 2693 3830
251 2689 4095
244 3288 0
242 3284 200
239 3280 755
237 3276 1358
234 3271 1984
231 3266 2610
228 3262 3212
226 3258 3768
223 3254 4095
219 3809 0
217 3805 142
214 3801 698
212 3797 1300
209 3792 1926
206 3788 2552
203 3783 3155
201 3779 3710
198 3776 4095
197 4095 0
195 4095 92
192 4095 648
190 4095 1250
187 4095 1876
184 4095 2502
181 4095 3105
179 4095 3660
176 4095 4095
956 0 58
954 0 544
951 0 1099
949 0 1702
946 0 2328
943 0 2954
940 0 3556
938 0 4095
935 0 4095
934 449 8
932 446 493
929 442 1049
927 437 1652
924 433 2278
921 428 2903
918 424 3506
916 420 4062
914 416 4095
909 971 0
907 967 436
904 963 992
902 959 1594
899 954 2220
896 950 2846
893 945 3449
891 941 4004
888 938 4095
882 1536 0
880 1532 374
877 1528 930
874 1524 1532
872 1519 2158
869 1515 2784
866 1510 3386
863 1506 3942
861 1503 4095
854 2123 0
851 2120 309
849 2116 865
846 2111 1467
843 2107 2093
840 2102 2719
838 2098 3322
835 2094 3877
833 2090 4095
825 2710 0
823 2707 245
821 2703 800
818 2698 1403
815 2694 2029
812 2689 2655
809 2685 3257
807 2681 3813
805 2677 4095
798 3276 0
796 3272 182
793 3268 738
791 3264 1341
788 3259 1967
785 3255 2592
782 3250 3195
780 3246 3751
777 3243 4095
773 3797 0
771 3793 125
768 3789 681
766 3785 1283
763 3780 1909
760 3776 2535
757 3771 3138
755 3767 3693
752 3764 4095
751 4095 0
749 4095 75
746 4095 631
744 4095 1233
741 4095 1859
738 4095 2485
735 4095 3087
733 4095 3643
730 4095 4095
1557 0 40
1555 0 525
1552 0 1081
1549 0 1683
1546 0 2309
1544 0 2935
1541 0 3538
1538 0 4093
1536 0 4095
1535 437 0
1533 433 475
1530 429 1031
1527 425 1633
1525 420 2259
1522 415 2885
1519 411 3487
1516 407 4043
1514 403 4095
1510 958 0
1508 954 418
1505 950 973
1502 946 1576
1499 941 2202
1497 937 2828
1494 932 3430
1491 928 3986
1489 925 4095
1483 1523 0
1480 1520 355
1478 1515 911
1475 1511 1514
1472 1507 2140
1469 1502 2765
1467 1498 3368
1464 1493 3924
1462 1490 4095
1454 2110 0
1452 2107 291
1450 2103 847
1447 2098 1449
1444 2094 2075
1441 2089 2701
1438 2085 3303
1436 2081 3859
1434 2077 4095
1426 2697 0
1424 2694 226
1421 2690 782
1419 2685 1384
1416 2681 2010
1413 2676 2636
1410 2672 3239
1408 2668 3794
1405 2664 4095
1399 3263 0
1397 3259 164
1394 3255 720
1391 3251 1322
1388 3246 1948
1386 3242 2574
1383 3237 3176
1380 3233 3732
1378 3230 4095
1374 3784 0
1372 3780 107
1369 3776 662
1366 3772 1265
1363 3767 1891
1361 3763 2517
1358 3758 3119
1355 3754 3675
1353 3751 4095
1352 4095 0
1350 4095 57
1347 4095 612
1344 4095 1215
1341 4095 1841
1339 4095 2466
1336 4095 3069
1333 4095 3625
1331 4095 4095
2181 0 20
2179 0 506
2176 0 1062
2173 0 1664
2170 0 2290
2168 0 2916
2165 0 3518
2162 0 4074
2160 0 4095
2159 423 0
2157 420 456
2154 415 1011
2151 411 1614
2149 407 2240
2146 402 2866
2143 398 3468
2140 394 4024
2138 390 4095
2134 944 0
2132 941 398
2129 937 954
2126 932 1557
2123 928 2183
2121 923 2808
2118 919 3411
2115 915 3967
2113 911 4095
2107 1510 0
2104 1506 336
2102 1502 892
2099 1498 1494
2096 1493 2120
2093 1489 2746
2091 1484 3349
2088 1480 3904
2086 1477 4095
2078 2097 0
2076 2093 272
2074 2089 827
2071 2085 1430
2068 2080 2056
2065 2076 2682
2062 2071 3284
2060 2067 3840
2058 2064 4095
2050 2684 0
2048 2680 207
2045 2676 763
2043 2672 1365
2040 2667 1991
2037 2663 2617
2034 2658 3219
2032 2654 3775
2029 2651 4095
2023 3249 0
2021 3246 145
2018 3242 700
2015 3237 1303
2012 3233 1929
2010 3228 2555
2007 3224 3157
2004 3220 3713
2002 3216 4095
1998 3771 0
1996 3767 87
1993 3763 643
1990 3759 1246
1987 3754 1872
1985 3749 2497
1982 3745 3100
1979 3741 3656
1977 3737 4095
1976 4095 0
1974 4095 37
1971 4095 593
1968 4095 1195
1965 4095 1821
1963 4095 2447
1960 4095 3050
1957 4095 3605
1955 4095 4091
2805 0 1
2803 0 487
2800 0 1042
2797 0 1645
2794 0 2271
2792 0 2897
2789 0 3499
2786 0 4055
2784 0 4095
2783 410 0
2781 406 437
2778 402 992
2775 398 1595
2773 393 2221
2770 389 2847
2767 384 3449
2764 380 4005
2762 377 4095
2758 931 0
2756 927 379
2753 923 935
2750 919 1537
2747 914 2163
2745 910 2789
2742 905 3392
2739 901 3947
2737 898 4095
2731 1496 0
2728 1493 317
2726 1489 873
2723 1484 1475
2720 1480 2101
2717 1475 2727
2715 1471 3329
2712 1467 3885
2710 1463 4095
2702 2083 0
2700 2080 252
2698 2076 808
2695 2071 1411
2692 2067 2036
2689 2062 2662
2686 2058 3265
2684 2054 3821
2682 2050 4095
2674 2671 0
2672 2667 188
2669 2663 743
2667 2659 1346
2664 2654 1972
2661 2649 2598
2658 2645 3200
2656 2641 3756
2653 2637 4095
2647 3236 0
2645 3232 126
2642 3228 681
2639 3224 1284
2637 3219 1910
2634 3215 2536
2631 3210 3138
2628 3206 3694
2626 3203 4095
2622 3757 0
2620 3754 68
2617 3750 624
2614 3745 1226
2611 3741 1852
2609 3736 2478
2606 3732 3081
2603 3728 3636
2601 3724 4095
2600 4095 0
2598 4095 18
2595 4095 574
2592 4095 1176
2589 4095 1802
2587 4095 2428
2584 4095 3031
2581 4095 3586
2579 4095 4072
3406 0 0
3403 0 468
3401 0 1024
3398 0 1626
3395 0 2252
3392 0 2878
3390 0 3481
3387 0 4036
3385 0 4095
3384 397 0
3381 393 418
3379 389 974
3376 385 1576
3373 380 2202
3370 376 2828
3368 371 3431
3365 367 3986
3363 364 4095
3359 918 0
3356 914 361
3354 910 916
3351 906 1519
3348 901 2145
3345 897 2771
3343 892 3373
3340 888 3929
3338 885 4095
3331 1483 0
3329 1480 299
3327 1476 854
3324 1471 1457
3321 1467 2083
3318 1462 2709
3315 1458 3311
3313 1454 3867
3311 1450 4095
3303 2070 0
3301 2067 234
3298 2063 790
3296 2058 1392
3293 2054 2018
3290 2049 2644
3287 2045 3246
3285 2041 3802
3282 2037 4095
3275 2658 0
3273 2654 169
3270 2650 725
3267 2646 1327
3264 2641 1953
3262 2636 2579
3259 2632 3182
3256 2628 3737
3254 2625 4095
3248 3223 0
3245 3219 107
3243 3215 663
3240 3211 1265
3237 3206 1891
3234 3202 2517
3232 3197 3120
3229 3193 3675
3227 3190 4095
3222 3744 0
3220 3741 50
3218 3737 605
3215 3732 1208
3212 3728 1834
3209 3723 2460
3206 3719 3062
3204 3715 3618
3202 3711 4095
3201 4095 0
3198 4095 0
3196 4095 555
3193 4095 1158
3190 4095 1784
3187 4095 2410
3185 4095 3012
3182 4095 3568
3180 4095 4053
3960 0 0
3957 0 451
3955 0 1007
3952 0 1609
3949 0 2235
3946 0 2861
3944 0 3464
3941 0 4019
3939 0 4095
3938 385 0
3935 381 401
3933 377 957
3930 373 1559
3927 368 2185
3924 364 2811
3922 359 3414
3919 355 3969
3917 352 4095
3913 906 0
3910 903 344
3908 898 899
3905 894 1502
3902 890 2128
3899 885 2754
3897 881 3356
3894 876 3912
3892 873 4095
3885 1471 0
3883 1468 281
3881 1464 837
3878 1459 1440
3875 1455 2066
3872 1450 2691
3869 1446 3294
3867 1442 3850
3865 1438 4095
3857 2058 0
3855 2055 217
3852 2051 773
3850 2047 1375
3847 2042 2001
3844 2037 2627
3841 2033 3229
3839 2029 3785
3836 2025 4095
3829 2646 0
3827 2642 152
3824 2638 708
3821 2634 1310
3818 2629 1936
3816 2625 2562
3813 2620 3165
3810 2616 3720
3808 2613 4095
3802 3211 0
3799 3207 90
3797 3203 646
3794 3199 1248
3791 3194 1874
3788 3190 2500
3786 3185 3103
3783 3181 3658
3781 3178 4095
3776 3732 0
3774 3729 33
3772 3725 588
3769 3720 1191
3766 3716 1817
3763 3711 2443
3761 3707 3045
3758 3703 3601
3756 3699 4086
3755 4095 0
3752 4095 0
3750 4095 538
3747 4095 1141
3744 4095 1767
3741 4095 2393
3739 4095 2995
3736 4095 3551
3734 4095 4036
4095 0 0
4095 0 436
4095 0 992
4095 0 1594
4095 0 2220
4095 0 2846
4095 0 3449
4095 0 4004
4095 0 4095
4095 374 0
4095 371 386
4095 367 942
4095 362 1544
4095 358 2170
4095 353 2796
4095 349 3399
4095 345 3954
4095 341 4095
4095 896 0
4095 892 329
4095 888 884
4095 884 1487
4095 879 2113
4095 875 2739
4095 870 3341
4095 866 3897
4095 863 4095
4095 1461 0
4095 1457 267
4095 1453 822
4095 1449 1425
4095 1444 2051
4095 1440 2677
4095 1435 3279
4095 1431 3835
4095 1428 4095
4095 2048 0
4095 2045 202
4095 2040 758
4095 2036 1360
4095 2032 1986
4095 2027 2612
4095 2023 3214
4095 2018 3770
4095 2015 4095
4095 2635 0
4095 2632 137
4095 2628 693
4095 2623 1296
4095 2619 1921
4095 2614 2547
4095 2610 3150
4095 2606 3706
4095 2602 4095
4095 3200 0
4095 3197 75
4095 3193 631
4095 3188 1233
4095 3184 1859
4095 3179 2485
4095 3175 3088
4095 3171 3643
4095 3167 4095
4095 3722 0
4095 3718 18
4095 3714 573
4095 3710 1176
4095 3705 1802
4095 3701 2428
4095 3696 3030
4095 3692 3586
4095 3689 4071
4095 4095 0
4095 4095 0
4095 4095 523
4095 4095 1126
4095 4095 1752
4095 4095 2378
4095 4095 2980
4095 4095 3536
4095 4095 4021
