public/luts/overworld.3dl
0 64 128 192 256 320 384 448 512 575 639 703 767 831 895 959 1023
0 16 90
0 15 323
0 13 576
0 11 846
0 9 1131
0 7 1428
0 4 1734
0 2 2045
0 0 2360
0 0 2674
0 0 2986
0 0 3291
0 0 3588
0 0 3873
0 0 4095
0 0 4095
0 0 4095
0 234 66
0 233 299
0 231 552
0 229 822
0 227 1107
0 225 1404
0 223 1710
0 220 2021
0 218 2336
0 216 2650
0 213 2962
0 211 3267
0 209 3564
0 207 3849
0 205 4095
0 203 4095
0 201 4095
0 472 40
0 470 272
0 468 525
0 466 796
0 464 1081
0 462 1378
0 460 1684
0 458 1995
0 455 2310
0 453 2624
0 451 2935
0 448 3241
0 446 3538
0 444 3823
0 442 4094
0 440 4095
0 439 4095
0 726 12
0 724 245
0 722 498
0 720 768
0 718 1053
0 716 1350
0 714 1656
0 711 1967
0 709 2282
0 707 2596
0 705 2907
0 702 3213
0 700 3510
0 698 3795
0 696 4066
0 694 4095
0 693 4095
0 993 0
0 991 215
0 990 468
0 988 739
0 986 1024
0 983 1321
0 981 1626
0 979 1938
0 977 2252
0 974 2567
0 972 2878
0 970 3184
0 968 3481
0 966 3766
0 964 4036
0 962 4095
0 960 4095
0 1272 0
0 1270 184
0 1268 437
0 1266 708
0 1264 993
0 1262 1290
0 1260 1596
0 1257 1907
0 1255 2222
0 1253 2536
0 1251 2847
0 1248 3153
0 1246 3450
0 1244 3735
0 1242 4006
0 1240 4095
0 1239 4095
0 1558 0
0 1557 153
0 1555 406
0 1553 676
0 1551 962
0 1549 1258
0 1546 1564
0 1544 1876
0 1542 2190
0 1540 2504
0 1537 2816
0 1535 3121
0 1533 3418
0 1531 3704
0 1529 3974
0 1527 4095
0 1525 4095
0 1851 0
0 1849 121
0 1847 374
0 1845 644
0 1843 929
0 1841 1226
0 1839 1532
0 1836 1843
0 1834 2158
0 1832 2472
0 1829 2784
0 1827 3089
0 1825 3386
0 1823 3671
0 1821 3942
0 1819 4095
0 1817 4095
0 2146 0
0 2144 88
0 2142 341
0 2140 612
0 2138 897
0 2136 1194
0 2134 1499
0 2131 1811
0 2129 2125
0 2127 2440
0 2124 2751
0 2122 3057
0 2120 3354
0 2118 3639
0 2116 3909
0 2114 4095
0 2112 4095
0 2441 0
0 2439 56
0 2437 309
0 2435 579
0 2433 864
0 2431 1161
0 2429 1467
0 2426 1778
0 2424 2093
0 2422 2407
0 2419 2719
0 2417 3024
0 2415 3321
0 2413 3606
0 2411 3877
0 2409 4095
0 2407 4095
0 2733 0
0 2731 24
0 2729 277
0 2727 547
0 2725 832
0 2723 1129
0 2721 1435
0 2718 1746
0 2716 2061
0 2714 2375
0 2712 2687
0 2709 2992
0 2707 3289
0 2705 3574
0 2703 3845
0 2701 4095
0 2700 4095
0 3019 0
0 3018 0
0 3016 245
0 3014 516
0 3012 801
0 3010 1098
0 3008 1403
0 3005 1715
0 3003 2029
0 3001 2344
0 2998 2655
0 2996 2961
0 2994 3258
0 2992 3543
0 2990 3813
0 2988 4066
0 2986 4095
0 3298 0
0 3296 0
0 3294 214
0 3292 485
0 3290 770
0 3288 1067
0 3286 1373
0 3284 1684
0 3281 1999
0 3279 2313
0 3277 2624
0 3275 2930
0 3272 3227
0 3270 3512
0 3268 3783
0 3267 4036
0 3265 4095
0 3566 0
0 3564 0
0 3562 185
0 3560 456
0 3558 741
0 3556 1038
0 3554 1343
0 3551 1655
0 3549 1969
0 3547 2283
0 3544 2595
0 3542 2901
0 3540 3197
0 3538 3483
0 3536 3753
0 3534 4006
0 3532 4095
0 3819 0
0 3818 0
0 3816 157
0 3814 428
0 3812 713
0 3810 1010
0 3807 1315
0 3805 1627
0 3803 1941
0 3800 2256
0 3798 2567
0 3796 2873
0 3794 3170
0 3792 3455
0 3790 3725
0 3788 3978
0 3786 4095
0 4057 0
0 4055 0
0 4053 131
0 4051 401
0 4049 687
0 4047 984
0 4045 1289
0 4042 1601
0 4040 1915
0 4038 2229
0 4036 2541
0 4033 2847
0 4031 3143
0 4029 3429
0 4027 3699
0 4025 3952
0 4024 4095
0 4095 0
0 4095 0
0 4095 107
0 4095 377
0 4095 663
0 4095 960
0 4095 1265
0 4095 1577
0 4095 1891
0 4095 2205
0 4095 2517
0 4095 2823
0 4095 3119
0 4095 3405
0 4095 3675
0 4095 3928
0 4095 4095
150 11 83
149 10 315
148 8 568
146 6 839
145 4 1124
144 2 1421
142 0 1727
141 0 2038
140 0 2353
138 0 2667
137 0 2978
135 0 3284
134 0 3581
133 0 3866
131 0 4095
130 0 4095
129 0 4095
139 230 59
138 228 291
137 226 544
136 224 815
135 222 1100
133 220 1397
132 218 1703
130 215 2014
129 213 2329
128 211 2643
126 208 2954
125 206 3260
123 204 3557
122 202 3842
121 200 4095
120 198 4095
119 196 4095
128 467 33
127 465 265
126 463 518
125 461 789
123 459 1074
122 457 1371
120 455 1676
119 453 1988
118 450 2302
116 448 2617
115 446 2928
113 443 3234
112 441 3531
111 439 3816
109 437 4086
108 435 4095
107 434 4095
116 721 5
115 719 237
114 717 490
112 715 761
111 713 1046
110 711 1343
108 709 1649
107 706 1960
105 704 2274
104 702 2589
103 700 2900
101 697 3206
100 695 3503
99 693 3788
97 691 4059
96 689 4095
95 688 4095
103 988 0
102 986 208
101 985 461
99 983 731
98 981 1017
97 978 1313
95 976 1619
94 974 1931
93 972 2245
91 969 2559
90 967 2871
88 965 3177
87 963 3473
86 961 3759
84 959 4029
83 957 4095
82 955 4095
89 1267 0
88 1265 177
87 1263 430
86 1261 701
85 1259 986
83 1257 1283
82 1255 1588
81 1252 1900
79 1250 2214
78 1248 2529
76 1246 2840
75 1243 3146
74 1241 3443
72 1239 3728
71 1237 3998
70 1235 4095
69 1234 4095
76 1553 0
75 1552 146
73 1550 399
72 1548 669
71 1546 954
70 1544 1251
68 1541 1557
67 1539 1868
65 1537 2183
64 1535 2497
62 1532 2809
61 1530 3114
60 1528 3411
58 1526 3696
57 1524 3967
56 1522 4095
55 1520 4095
62 1846 0
61 1844 114
59 1842 367
58 1840 637
57 1838 922
55 1836 1219
54 1834 1525
53 1831 1836
51 1829 2151
50 1827 2465
48 1824 2777
47 1822 3082
46 1820 3379
44 1818 3664
43 1816 3935
42 1814 4095
41 1812 4095
47 2141 0
46 2139 81
45 2137 334
44 2135 605
43 2133 890
41 2131 1187
40 2129 1492
38 2126 1804
37 2124 2118
36 2122 2433
34 2119 2744
33 2117 3050
31 2115 3347
30 2113 3632
29 2111 3902
28 2109 4095
27 2107 4095
33 2436 0
32 2434 49
31 2432 302
30 2430 572
28 2428 857
27 2426 1154
26 2424 1460
24 2421 1771
23 2419 2086
21 2417 2400
20 2414 2712
19 2412 3017
17 2410 3314
16 2408 3599
15 2406 3870
14 2404 4095
12 2402 4095
19 2728 0
18 2726 17
17 2724 270
16 2722 540
14 2720 825
13 2718 1122
12 2716 1428
10 2714 1739
9 2711 2054
7 2709 2368
6 2707 2679
5 2704 2985
3 2702 3282
2 2700 3567
1 2698 3838
0 2696 4091
0 2695 4095
5 3015 0
4 3013 0
3 3011 238
2 3009 508
1 3007 794
0 3005 1091
0 3003 1396
0 3000 1708
0 2998 2022
0 2996 2336
0 2993 2648
0 2991 2954
0 2989 3250
0 2987 3536
0 2985 3806
0 2983 4059
0 2981 4095
0 3293 0
0 3291 0
0 3289 207
0 3287 478
0 3285 763
0 3283 1060
0 3281 1365
0 3279 1677
0 3276 1991
0 3274 2306
0 3272 2617
0 3270 2923
0 3267 3220
0 3265 3505
0 3263 3775
0 3262 4028
0 3260 4095
0 3561 0
0 3559 0
0 3557 178
0 3555 448
0 3553 734
0 3551 1030
0 3549 1336
0 3546 1648
0 3544 1962
0 3542 2276
0 3539 2588
0 3537 2893
0 3535 3190
0 3533 3475
0 3531 3746
0 3529 3999
0 3527 4095
0 3814 0
0 3813 0
0 3811 150
0 3809 420
0 3807 706
0 3805 1002
0 3802 1308
0 3800 1620
0 3798 1934
0 3795 2248
0 3793 2560
0 3791 2866
0 3789 3162
0 3787 3448
0 3785 3718
0 3783 3971
0 3781 4095
0 4052 0
0 4050 0
0 4048 124
0 4046 394
0 4044 680
0 4042 976
0 4040 1282
0 4037 1593
0 4035 1908
0 4033 2222
0 4031 2534
0 4028 2839
0 4026 3136
0 4024 3421
0 4022 3692
0 4020 3945
0 4019 4095
0 4095 0
0 4095 0
0 4095 100
0 4095 370
0 4095 656
0 4095 952
0 4095 1258
0 4095 1569
0 4095 1884
0 4095 2198
0 4095 2510
0 4095 2815
0 4095 3112
0 4095 3397
0 4095 3668
0 4095 3921
0 4095 4095
402 6 75
401 4 308
400 2 561
399 0 831
397 0 1116
396 0 1413
395 0 1719
393 0 2030
392 0 2345
390 0 2659
389 0 2971
388 0 3276
386 0 3573
385 0 3858
384 0 4095
382 0 4095
381 0 4095
392 224 51
391 222 284
389 221 537
388 219 807
387 216 1092
386 214 1389
384 212 1695
383 210 2006
381 208 2321
380 205 2635
378 203 2947
377 201 3252
376 199 3549
374 196 3834
373 194 4095
372 193 4095
371 191 4095
380 461 25
379 460 258
378 458 511
377 456 781
375 454 1066
374 452 1363
373 449 1669
371 447 1980
370 445 2295
368 443 2609
367 440 2921
366 438 3226
364 436 3523
363 434 3808
362 432 4079
361 430 4095
359 428 4095
368 715 0
367 714 230
366 712 483
365 710 753
363 708 1038
362 705 1335
360 703 1641
359 701 1952
358 699 2267
356 696 2581
355 694 2893
353 692 3198
352 690 3495
351 688 3780
349 686 4051
348 684 4095
347 682 4095
355 983 0
354 981 200
353 979 453
352 977 724
350 975 1009
349 973 1306
348 971 1611
346 968 1923
345 966 2237
343 964 2552
342 962 2863
340 959 3169
339 957 3466
338 955 3751
337 953 4021
335 951 4095
334 950 4095
342 1261 0
341 1260 170
339 1258 423
338 1256 693
337 1254 978
336 1251 1275
334 1249 1581
333 1247 1892
331 1245 2207
330 1242 2521
328 1240 2833
327 1238 3138
326 1236 3435
324 1234 3720
323 1232 3991
322 1230 4095
321 1228 4095
328 1548 0
327 1546 138
326 1544 391
324 1542 662
323 1540 947
322 1538 1244
320 1536 1549
319 1534 1861
318 1531 2175
316 1529 2489
315 1527 2801
313 1525 3107
312 1522 3403
311 1520 3689
309 1518 3959
308 1517 4095
307 1515 4095
314 1840 0
313 1838 106
312 1837 359
310 1835 629
309 1833 915
308 1830 1211
306 1828 1517
305 1826 1828
303 1824 2143
302 1821 2457
301 1819 2769
299 1817 3074
298 1815 3371
297 1813 3656
295 1811 3927
294 1809 4095
293 1807 4095
300 2135 0
299 2133 73
297 2132 326
296 2130 597
295 2128 882
294 2125 1179
292 2123 1485
291 2121 1796
289 2119 2110
288 2116 2425
286 2114 2736
285 2112 3042
284 2110 3339
282 2108 3624
281 2106 3895
280 2104 4095
279 2102 4095
285 2430 0
284 2428 41
283 2427 294
282 2425 564
281 2423 850
279 2420 1146
278 2418 1452
276 2416 1764
275 2414 2078
274 2411 2392
272 2409 2704
271 2407 3010
269 2405 3306
268 2403 3592
267 2401 3862
266 2399 4095
265 2397 4095
271 2722 0
270 2721 9
269 2719 262
268 2717 532
267 2715 817
265 2713 1114
264 2710 1420
262 2708 1731
261 2706 2046
260 2703 2360
258 2701 2672
257 2699 2977
255 2697 3274
254 2695 3559
253 2693 3830
252 2691 4083
251 2689 4095
258 3009 0
256 3007 0
255 3006 230
254 3004 501
253 3001 786
251 2999 1083
250 2997 1388
249 2995 1700
247 2993 2014
246 2990 2329
244 2988 2640
243 2986 2946
242 2984 3243
240 2981 3528
239 2979 3798
238 2978 4051
237 2976 4095
244 3288 0
243 3286 0
242 3284 200
241 3282 470
239 3280 755
238 3278 1052
237 3276 1358
235 3273 1669
234 3271 1984
232 3269 2298
231 3266 2610
230 3264 2915
228 3262 3212
227 3260 3497
226 3258 3768
224 3256 4021
223 3254 4095
231 3555 0
230 3553 0
229 3552 170
228 3550 441
226 3547 726
225 3545 1023
224 3543 1328
222 3541 1640
221 3539 1954
219 3536 2269
218 3534 2580
217 3532 2886
215 3530 3183
214 3527 3468
213 3526 3738
212 3524 3991
211 3522 4095
219 3809 0
218 3807 0
217 3805 142
216 3803 413
214 3801 698
213 3799 995
212 3797 1300
210 3795 1612
209 3792 1926
207 3790 2241
206 3788 2552
204 3786 2858
203 3783 3155
202 3781 3440
201 3779 3710
199 3777 3963
198 3776 4095
208 4046 0
207 4045 0
205 4043 116
204 4041 387
203 4039 672
201 4036 969
200 4034 1274
199 4032 1586
197 4030 1900
196 4027 2215
194 4025 2526
193 4023 2832
192 4021 3129
190 4019 3414
189 4017 3684
188 4015 3937
187 4013 4095
197 4095 0
196 4095 0
195 4095 92
194 4095 363
192 4095 648
191 4095 945
190 4095 1250
188 4095 1562
187 4095 1876
185 4095 2191
184 4095 2502
183 4095 2808
181 4095 3105
180 4095 3390
179 4095 3660
177 4095 3913
176 4095 4095
672 0 67
671 0 299
670 0 552
668 0 823
667 0 1108
666 0 1405
664 0 1711
663 0 2022
661 0 2336
660 0 2651
659 0 2962
657 0 3268
656 0 3565
655 0 3850
653 0 4095
652 0 4095
651 0 4095
661 218 43
660 217 275
659 215 528
658 213 799
657 211 1084
655 208 1381
654 206 1687
652 204 1998
651 202 2312
650 199 2627
648 197 2938
647 195 3244
645 193 3541
644 191 3826
643 189 4095
642 187 4095
